Numix-GalliumOS/16/mimetypes/extension.svg

<?xml version="1.0" encoding="UTF-8" standalone="no"?>
<svg
   xmlns:dc="http://purl.org/dc/elements/1.1/"
   xmlns:cc="http://creativecommons.org/ns#"
   xmlns:rdf="http://www.w3.org/1999/02/22-rdf-syntax-ns#"
   xmlns:svg="http://www.w3.org/2000/svg"
   xmlns="http://www.w3.org/2000/svg"
   xmlns:sodipodi="http://sodipodi.sourceforge.net/DTD/sodipodi-0.dtd"
   xmlns:inkscape="http://www.inkscape.org/namespaces/inkscape"
   width="16"
   height="16"
   viewBox="0 0 16 16"
   id="svg2"
   version="1.1"
   inkscape:version="0.48.5 r10040"
   sodipodi:docname="extension.svg">
  <metadata
     id="metadata22">
    <rdf:RDF>
      <cc:Work
         rdf:about="">
        <dc:format>image/svg+xml</dc:format>
        <dc:type
           rdf:resource="http://purl.org/dc/dcmitype/StillImage" />
      </cc:Work>
    </rdf:RDF>
  </metadata>
  <defs
     id="defs20" />
  <sodipodi:namedview
     pagecolor="#ffffff"
     bordercolor="#666666"
     borderopacity="1"
     objecttolerance="10"
     gridtolerance="10"
     guidetolerance="10"
     inkscape:pageopacity="0"
     inkscape:pageshadow="2"
     inkscape:window-width="1280"
     inkscape:window-height="970"
     id="namedview18"
     showgrid="true"
     inkscape:zoom="10.429825"
     inkscape:cx="-2.9436814"
     inkscape:cy="7.8283088"
     inkscape:window-x="0"
     inkscape:window-y="0"
     inkscape:window-maximized="1"
     inkscape:current-layer="svg2">
    <inkscape:grid
       type="xygrid"
       id="grid3010" />
  </sodipodi:namedview>
  <path
     style="fill:#888888;fill-opacity:1"
     d="M 2.667969,-4.46e-4 C 2.324219,-4.46e-4 2,0.337812 2,0.6964467 L 2,15.303108 C 2,15.641365 2.34375,16 2.667969,16 l 10.664062,0 C 13.65625,16 14,15.641365 14,15.303108 L 14,3.9995538 10,-4.46e-4 z"
     id="path4-1"
     inkscape:connector-curvature="0"
     sodipodi:nodetypes="ssssssccs" />
  <g
     style="fill:#ffffff"
     id="g10"
     transform="matrix(1.2505497,0,0,1.2505497,-2.5032982,-2.1712723)">
    <path
       d="M 6,7.3337927 6,9.332031 C 6,8.964844 6.296875,8.667969 6.667969,8.667969 c 0.367187,0 0.664062,0.296875 0.664062,0.664062 C 7.332031,9.703125 7.035156,10 6.667969,10 6.296875,10 6,9.703125 6,9.332031 l 0,2.000003 2,-3e-6 c -0.367188,0 -0.667969,-0.296875 -0.667969,-0.664062 C 7.332031,10.296875 7.632812,10 8,10 c 0.367188,0 0.667969,0.296875 0.667969,0.667969 0,0.367187 -0.300781,0.664062 -0.667969,0.664062 l 1.9982417,3e-6 0,-3.9982413 z"
       id="path12"
       inkscape:connector-curvature="0"
       sodipodi:nodetypes="ccssscccssscccc" />
    <path
       d="M 8.667969,6.667969 C 8.667969,7.035156 8.367188,7.332031 8,7.332031 7.632812,7.332031 7.332031,7.035156 7.332031,6.667969 7.332031,6.296875 7.632812,6 8,6 8.367188,6 8.667969,6.296875 8.667969,6.667969 z"
       id="path14"
       inkscape:connector-curvature="0" />
    <path
       d="M 11.332031,9.332031 C 11.332031,9.703125 11.035156,10 10.667969,10 10.296875,10 10,9.703125 10,9.332031 c 0,-0.367187 0.296875,-0.664062 0.667969,-0.664062 0.367187,0 0.664062,0.296875 0.664062,0.664062 z"
       id="path16"
       inkscape:connector-curvature="0" />
  </g>
  <path
     style="fill:#000000;fill-opacity:0.19599998"
     d="m 10.583223,3.3315848 0.0154,0.01953 0.04005,-0.01953 z m 0.02978,0.667969 3.386999,3.664062 0,-3.664062 z"
     id="path6"
     inkscape:connector-curvature="0"
     sodipodi:nodetypes="cccccccc" />
  <path
     style="fill:#ffffff;fill-opacity:0.39200003"
     d="m 10,-4.46e-4 3.996396,3.9999998 -3.383783,0 C 10.313513,3.9995538 10,3.6824368 10,3.3833378 z"
     id="path8"
     inkscape:connector-curvature="0"
     sodipodi:nodetypes="ccssc" />
</svg>

<svg xmlns="http://www.w3.org/2000/svg" viewBox="0 0 16 16">
 <path d="m 2.668 0 c -0.344 0 -0.668 0.338 -0.668 0.697 l 0 14.607 c 0 0.338 0.344 0.697 0.668 0.697 l 10.664 0 c 0.324 0 0.668 -0.359 0.668 -0.697 l 0 -11.304 -4 -4 z" style="fill:#888;fill-opacity:1"/>
 <g transform="matrix(1.2505497,0,0,1.2505497,-2.5032982,-2.1712723)" style="fill:#fff">
  <path d="m 6 7.334 0 1.998 c 0 -0.367 0.297 -0.664 0.668 -0.664 c 0.367 0 0.664 0.297 0.664 0.664 c 0 0.371 -0.297 0.668 -0.664 0.668 -0.371 0 -0.668 -0.297 -0.668 -0.668 l 0 2 2 0 c -0.367 0 -0.668 -0.297 -0.668 -0.664 c 0 -0.371 0.301 -0.668 0.668 -0.668 c 0.367 0 0.668 0.297 0.668 0.668 0 0.367 -0.301 0.664 -0.668 0.664 l 1.998 0 0 -3.998 z"/>
  <path d="m 8.668 6.668 c 0 0.367 -0.301 0.664 -0.668 0.664 -0.367 0 -0.668 -0.297 -0.668 -0.664 0 -0.371 0.301 -0.668 0.668 -0.668 0.367 0 0.668 0.297 0.668 0.668 z"/>
  <path d="m 11.332 9.332 c 0 0.371 -0.297 0.668 -0.664 0.668 -0.371 0 -0.668 -0.297 -0.668 -0.668 c 0 -0.367 0.297 -0.664 0.668 -0.664 0.367 0 0.664 0.297 0.664 0.664 z"/>
 </g>
 <path d="m 10.583 3.332 0.015 0.02 0.04 -0.02 z m 0.03 0.668 3.387 3.664 0 -3.664 z" style="fill:#000;fill-opacity:0.196"/>
 <path d="m 10 0 3.996 4 -3.384 0 c -0.299 0 -0.613 -0.317 -0.613 -0.616 z" style="fill:#fff;fill-opacity:0.392"/>
</svg>
